public/assets/location-red.svg

<svg width="30" height="40" viewBox="0 0 30 40" fill="none" xmlns="http://www.w3.org/2000/svg">
<g clip-path="url(#clip0_10_30)">
<g filter="url(#filter0_f_10_30)">
<ellipse cx="15.5" cy="39.5" rx="4.5" ry="2.5" fill="black" fill-opacity="0.12"/>
</g>
<mask id="path-2-outside-1_10_30" maskUnits="userSpaceOnUse" x="2" y="0" width="27" height="40" fill="black">
<rect fill="white" x="2" width="27" height="40"/>
<path fill-rule="evenodd" clip-rule="evenodd" d="M28 13.5C28 16.3253 27.0627 18.9316 25.4821 21.025C24.9203 21.8066 24.1609 22.6384 23.3202 23.5591C20.4001 26.7571 16.5 31.0285 16.5 38C16.5 38.5523 16.0523 39 15.5 39C14.9477 39 14.5 38.5523 14.5 38C14.5 31.0285 10.5999 26.7571 7.67984 23.5591C6.83915 22.6384 6.07969 21.8066 5.51793 21.025C3.93731 18.9316 3 16.3253 3 13.5C3 6.59644 8.59644 1 15.5 1C22.4036 1 28 6.59644 28 13.5Z"/>
</mask>
<path fill-rule="evenodd" clip-rule="evenodd" d="M28 13.5C28 16.3253 27.0627 18.9316 25.4821 21.025C24.9203 21.8066 24.1609 22.6384 23.3202 23.5591C20.4001 26.7571 16.5 31.0285 16.5 38C16.5 38.5523 16.0523 39 15.5 39C14.9477 39 14.5 38.5523 14.5 38C14.5 31.0285 10.5999 26.7571 7.67984 23.5591C6.83915 22.6384 6.07969 21.8066 5.51793 21.025C3.93731 18.9316 3 16.3253 3 13.5C3 6.59644 8.59644 1 15.5 1C22.4036 1 28 6.59644 28 13.5Z" fill="#EA352B"/>
<path d="M25.4821 21.025L24.684 20.4224L24.6769 20.4318L24.67 20.4414L25.4821 21.025ZM23.3202 23.5591L24.0586 24.2334L23.3202 23.5591ZM7.67984 23.5591L8.41831 22.8848L8.41831 22.8848L7.67984 23.5591ZM5.51793 21.025L6.32995 20.4414L6.32309 20.4318L6.316 20.4225L5.51793 21.025ZM26.2801 21.6276C27.9873 19.3666 29 16.5501 29 13.5H27C27 16.1004 26.1381 18.4966 24.684 20.4224L26.2801 21.6276ZM24.0586 24.2334C24.8872 23.326 25.6911 22.4477 26.2941 21.6086L24.67 20.4414C24.1496 21.1656 23.4345 21.9508 22.5817 22.8848L24.0586 24.2334ZM17.5 38C17.5 31.4506 21.1345 27.4359 24.0586 24.2334L22.5817 22.8848C19.6658 26.0783 15.5 30.6065 15.5 38H17.5ZM15.5 40C16.6046 40 17.5 39.1046 17.5 38H15.5V40ZM13.5 38C13.5 39.1046 14.3954 40 15.5 40V38H13.5ZM6.94136 24.2334C9.86553 27.4359 13.5 31.4506 13.5 38H15.5C15.5 30.6065 11.3342 26.0783 8.41831 22.8848L6.94136 24.2334ZM4.70591 21.6087C5.30894 22.4477 6.11284 23.326 6.94136 24.2334L8.41831 22.8848C7.56546 21.9508 6.85045 21.1656 6.32995 20.4414L4.70591 21.6087ZM2 13.5C2 16.5501 3.01274 19.3666 4.71987 21.6276L6.316 20.4225C4.86188 18.4966 4 16.1004 4 13.5H2ZM15.5 0C8.04416 0 2 6.04416 2 13.5H4C4 7.14873 9.14873 2 15.5 2V0ZM29 13.5C29 6.04416 22.9558 0 15.5 0V2C21.8513 2 27 7.14873 27 13.5H29Z" fill="url(#paint0_linear_10_30)" mask="url(#path-2-outside-1_10_30)"/>
<circle cx="15.5" cy="13.5" r="4.5" fill="black" fill-opacity="0.4"/>
</g>
<defs>
<filter id="filter0_f_10_30" x="9" y="35" width="13" height="9" filterUnits="userSpaceOnUse" color-interpolation-filters="sRGB">
<feFlood flood-opacity="0" result="BackgroundImageFix"/>
<feBlend mode="normal" in="SourceGraphic" in2="BackgroundImageFix" result="shape"/>
<feGaussianBlur stdDeviation="1" result="effect1_foregroundBlur_10_30"/>
</filter>
<linearGradient id="paint0_linear_10_30" x1="15.5" y1="1" x2="15.5" y2="39" gradientUnits="userSpaceOnUse">
<stop stop-color="white"/>
<stop offset="1" stop-color="white" stop-opacity="0.35"/>
</linearGradient>
<clipPath id="clip0_10_30">
<rect width="30" height="40" fill="white"/>
</clipPath>
</defs>
</svg>

<svg width="30" height="40" fill="none" xmlns="http://www.w3.org/2000/svg"><g clip-path="url(#a)"><g filter="url(#b)"><ellipse cx="15.5" cy="39.5" rx="4.5" ry="2.5" fill="#000" fill-opacity=".12"/></g><mask id="d" maskUnits="userSpaceOnUse" x="2" y="0" width="27" height="40" fill="#000"><path fill="#fff" d="M2 0h27v40H2z"/><path fill-rule="evenodd" clip-rule="evenodd" d="M28 13.5c0 2.825-.937 5.432-2.518 7.525-.562.782-1.321 1.613-2.162 2.534C20.4 26.757 16.5 31.03 16.5 38a1 1 0 1 1-2 0c0-6.971-3.9-11.243-6.82-14.44-.84-.922-1.6-1.753-2.162-2.535A12.445 12.445 0 0 1 3 13.5C3 6.596 8.596 1 15.5 1S28 6.596 28 13.5Z"/></mask><path fill-rule="evenodd" clip-rule="evenodd" d="M28 13.5c0 2.825-.937 5.432-2.518 7.525-.562.782-1.321 1.613-2.162 2.534C20.4 26.757 16.5 31.03 16.5 38a1 1 0 1 1-2 0c0-6.971-3.9-11.243-6.82-14.44-.84-.922-1.6-1.753-2.162-2.535A12.445 12.445 0 0 1 3 13.5C3 6.596 8.596 1 15.5 1S28 6.596 28 13.5Z" fill="#EA352B"/><path d="m25.482 21.025-.798-.603-.007.01-.007.01.812.583Zm-2.162 2.534.739.674-.739-.674Zm-15.64 0 .738-.674-.738.674Zm-2.162-2.534.812-.584-.007-.01-.007-.009-.798.603Zm20.762.603A13.445 13.445 0 0 0 29 13.5h-2c0 2.6-.862 4.997-2.316 6.922l1.596 1.206Zm-2.221 2.605c.828-.907 1.632-1.785 2.235-2.624L24.67 20.44c-.52.725-1.236 1.51-2.088 2.444l1.477 1.348ZM17.5 38c0-6.55 3.634-10.564 6.559-13.767l-1.477-1.348C19.666 26.078 15.5 30.606 15.5 38h2Zm-2 2a2 2 0 0 0 2-2h-2v2Zm-2-2a2 2 0 0 0 2 2v-2h-2ZM6.941 24.233C9.866 27.436 13.5 31.451 13.5 38h2c0-7.393-4.166-11.922-7.082-15.115l-1.477 1.348ZM4.706 21.61c.603.839 1.407 1.717 2.235 2.624l1.477-1.348c-.853-.934-1.568-1.72-2.088-2.444L4.706 21.61ZM2 13.5c0 3.05 1.013 5.867 2.72 8.128l1.596-1.206A11.445 11.445 0 0 1 4 13.5H2ZM15.5 0C8.044 0 2 6.044 2 13.5h2C4 7.149 9.149 2 15.5 2V0ZM29 13.5C29 6.044 22.956 0 15.5 0v2C21.851 2 27 7.149 27 13.5h2Z" fill="url(#c)" mask="url(#d)"/><circle cx="15.5" cy="13.5" r="4.5" fill="#000" fill-opacity=".4"/></g><defs><linearGradient id="c" x1="15.5" y1="1" x2="15.5" y2="39" gradientUnits="userSpaceOnUse"><stop stop-color="#fff"/><stop offset="1" stop-color="#fff" stop-opacity=".35"/></linearGradient><clipPath id="a"><path fill="#fff" d="M0 0h30v40H0z"/></clipPath><filter id="b" x="9" y="35" width="13" height="9" filterUnits="userSpaceOnUse" color-interpolation-filters="sRGB"><feFlood flood-opacity="0" result="BackgroundImageFix"/><feBlend in="SourceGraphic" in2="BackgroundImageFix" result="shape"/><feGaussianBlur stdDeviation="1" result="effect1_foregroundBlur_10_30"/></filter></defs></svg>
